build/img/index/brand/4.svg

<svg width="78" height="28" viewBox="0 0 78 28" fill="none" xmlns="http://www.w3.org/2000/svg">
<path d="M8.73684 27.6051C6.4349 27.515 4.55158 26.894 3.07898 25.7407C2.79794 25.5204 2.12824 24.8598 1.90357 24.5811C1.30641 23.8409 0.900417 23.1204 0.629625 22.3211C-0.203643 19.8606 0.22521 16.6318 1.85627 13.0882C3.2528 10.0545 5.40771 7.04569 9.16727 2.87846C9.72107 2.26527 11.3703 0.471924 11.3809 0.471924C11.3848 0.471924 11.295 0.625419 11.1819 0.81233C10.2043 2.42653 9.3679 4.32789 8.91224 5.97395C8.18028 8.61519 8.26857 10.8818 9.17081 12.6394C9.7932 13.8503 10.8602 14.8991 12.0601 15.4788C14.1606 16.4934 17.2359 16.5774 20.9915 15.7244C21.25 15.6654 34.0628 12.3122 49.4645 8.27285C64.8661 4.23308 77.4696 0.930463 77.4716 0.933183C77.4759 0.936681 41.6891 16.0334 23.1117 23.8654C20.1696 25.1054 19.3829 25.4186 17.9997 25.8973C14.4641 27.1214 11.2969 27.7054 8.73684 27.6051Z" fill="black"/>
<path d="M2.29273 24.2672L2.29279 24.2673C2.49368 24.5164 3.1363 25.1503 3.38746 25.3472C4.75985 26.422 6.53497 27.0185 8.7564 27.1055C11.2326 27.2025 14.3346 26.6371 17.8362 25.4248L17.8362 25.4248C19.2027 24.9518 19.9765 24.6442 22.9175 23.4046C32.2061 19.4887 45.7971 13.7565 57.0655 9.0029C62.4353 6.7376 67.2776 4.69454 70.8755 3.17615C70.3949 3.30209 69.8925 3.43374 69.3696 3.57075C64.2934 4.90102 57.2921 6.73661 49.5913 8.75649L49.4651 8.27532L49.5913 8.75649C34.1993 12.7934 21.3718 16.1504 21.1028 16.2119L21.1022 16.212C17.3025 17.075 14.093 17.0161 11.8426 15.9291L11.8425 15.929C10.5426 15.3009 9.39697 14.1731 8.72612 12.868L8.726 12.8678C7.74747 10.9616 7.67794 8.55569 8.43036 5.84056L2.29273 24.2672ZM2.29273 24.2672C1.72792 23.567 1.35289 22.8977 1.10321 22.1607M2.29273 24.2672L1.10321 22.1607M1.10321 22.1607C0.32743 19.87 0.706601 16.7818 2.31046 13.2973C3.63881 10.4117 5.67737 7.52786 9.23355 3.55284C8.90694 4.33259 8.63271 5.10962 8.4304 5.84042L1.10321 22.1607ZM9.93187 2.03993C9.62525 2.37462 9.34184 2.68517 9.16727 2.87846L9.93187 2.03993ZM9.93187 2.03993C9.75363 2.39273 9.58381 2.75098 9.42435 3.1104L9.93187 2.03993ZM11.039 0.836683C11.0618 0.812025 11.0837 0.788321 11.1048 0.765667L11.1818 0.812324L11.039 0.836683Z" stroke="#132C39" stroke-opacity="0.05"/>
</svg>

<svg width="78" height="28" viewBox="0 0 78 28" fill="none" xmlns="http://www.w3.org/2000/svg"><path d="M8.737 27.605c-2.302-.09-4.185-.711-5.658-1.864-.281-.22-.95-.881-1.175-1.16-.598-.74-1.004-1.46-1.274-2.26-.834-2.46-.405-5.69 1.226-9.233 1.397-3.033 3.552-6.042 7.311-10.21.554-.613 2.203-2.406 2.214-2.406a6.4 6.4 0 01-.2.34c-.977 1.615-1.813 3.516-2.269 5.162-.732 2.641-.643 4.908.259 6.665.622 1.211 1.69 2.26 2.89 2.84 2.1 1.014 5.175 1.098 8.93.245a14406.8 14406.8 0 0028.474-7.451A35246.64 35246.64 0 0177.472.933c.004.004-35.783 15.1-54.36 22.932-2.942 1.24-3.73 1.554-5.112 2.032-3.536 1.224-6.703 1.808-9.263 1.708z" fill="#000"/><path d="M2.293 24.267h0c.2.25.843.883 1.094 1.08 1.373 1.075 3.148 1.671 5.37 1.758 2.476.098 5.578-.468 9.08-1.68h0c1.366-.473 2.14-.78 5.08-2.02a181527.798 181527.798 0 0047.96-20.229l-1.506.395A97889.17 97889.17 0 0049.59 8.756l-.126-.48.126.48a14173.96 14173.96 0 01-28.488 7.456h0c-3.8.863-7.01.804-9.26-.283h0c-1.3-.628-2.446-1.756-3.117-3.061h0c-.979-1.906-1.048-4.312-.296-7.027L2.293 24.267zm0 0c-.565-.7-.94-1.37-1.19-2.106m1.19 2.106l-1.19-2.106m0 0C.327 19.87.707 16.78 2.31 13.297c1.329-2.885 3.367-5.77 6.924-9.744-.327.78-.601 1.557-.804 2.287L1.103 22.16zM9.932 2.04l-.765.838.765-.838zm0 0c-.178.353-.348.711-.508 1.07l.508-1.07zM11.039.837l.066-.071.077.046-.143.025z" stroke="#132C39" stroke-opacity=".05"/></svg>
